X: 26103
T: McFadden's Own
R: reel
M: 4/4
K: Gmajor
B3G AcBA|GBdB ce3|dcBG ABcd|e2dc BGGA|
B3G AD3|GBdB ce3|dcBG ABcd|e2dc BGBd||
gdBd gbba|g2fd eAAf|gdBd gbba|gedc BGG2|
GABc dbba|gefd eAA2|gfef gedB|gedB AGG2||

